lottiefiles.svg

<?xml version="1.0" encoding="UTF-8"?>
<svg viewBox="0 0 9 9" version="1.1" xmlns="http://www.w3.org/2000/svg" xmlns:xlink="http://www.w3.org/1999/xlink">
    <title>Lottie Files</title>
    <defs>
        <path d="M7.36027002,-5.88649944e-16 C5.13604439,-5.88649944e-16 4.31181834,1.58814085 3.64905742,2.86395561 L3.21602601,3.68022853 C2.51432789,5.03325494 1.98991831,5.85574124 0.638714489,5.85574124 C0.469264543,5.85563725 0.306732272,5.92293927 0.186960078,6.04280551 C0.0672064239,6.16259778 -5.88649944e-16,6.32506117 -5.88649944e-16,6.49444571 C-5.88649944e-16,6.66383026 0.0673890488,6.8262566 0.187208614,6.94598295 C0.306984167,7.06573258 0.469344803,7.1331197 0.638714489,7.1333786 C2.86385142,7.1333786 3.68807747,5.54515491 4.35083839,4.26942299 L4.78295851,3.45315007 C5.48556792,2.10004081 6.0099775,1.27763736 7.36027002,1.27763736 C7.52987972,1.27793395 7.69263391,1.21071587 7.81260435,1.09082163 C7.93259123,0.971001539 8,0.808387855 8,0.638818679 C7.99931484,0.285950698 7.71313864,0.000219216308 7.36027002,8.28451147e-05 L7.36027002,-5.88649944e-16 Z" id="path-1"></path>
    </defs>
    <g id="Page-1" stroke="none" stroke-width="1" fill="none" fill-rule="evenodd">
        <g id="Lottie-Files" transform="translate(0.699258, 0.934000)">
            <mask id="mask-2" fill="white">
                <use xlink:href="#path-1"></use>
            </mask>
            <use id="Mask" fill="#FFFFFF" fill-rule="nonzero" xlink:href="#path-1"></use>
            <path d="M7.19176306,-2.89411124 L0.809044045,-2.89411124 C-0.996648075,-2.89411124 -2.46043841,-1.43032091 -2.46043841,0.375371215 L-2.46043841,6.75809023 C-2.46043841,8.56369951 -0.996648075,10.0274898 0.809044045,10.0274898 L7.19176306,10.0274898 C8.99737234,10.0274898 10.4611627,8.56369951 10.4611627,6.75809023 L10.4611627,0.375371215 C10.4611627,-1.43032091 8.99737234,-2.89411124 7.19176306,-2.89411124 Z" id="Path" fill="#00DDB3" fill-rule="nonzero" mask="url(#mask-2)"></path>
        </g>
    </g>
</svg>

<svg viewBox="0 0 9 9" xmlns="http://www.w3.org/2000/svg" xmlns:xlink="http://www.w3.org/1999/xlink"><defs><path d="M7.36 0C5.136 0 4.312 1.588 3.65 2.864l-.434.816C2.514 5.033 1.99 5.856.639 5.856a.638.638 0 1 0 0 1.277c2.225 0 3.05-1.588 3.712-2.864l.432-.816C5.486 2.1 6.01 1.278 7.36 1.278A.638.638 0 1 0 7.36 0Z" id="a"/></defs><g transform="translate(.7 .934)" fill="none" fill-rule="evenodd"><mask id="b" fill="#fff"><use xlink:href="#a"/></mask><use fill="#FFF" fill-rule="nonzero" xlink:href="#a"/><path d="M7.192-2.894H.809a3.27 3.27 0 0 0-3.27 3.27v6.382a3.27 3.27 0 0 0 3.27 3.27h6.383a3.27 3.27 0 0 0 3.27-3.27V.375a3.27 3.27 0 0 0-3.27-3.27Z" fill="#00DDB3" fill-rule="nonzero" mask="url(#b)"/></g></svg>
